X:2637
T:Polonäs i Dm efter Conrad Sandsten
S:efter Conrad Sandsten
B:[[http://www.smus.se/earkiv/fmk/browselarge.php?lang=sw&katalogid=M+170&bildnr=00024|SMUS - katalog M170 bild 24]] (längst ned t.h.)
B:Conrad Sandstens notbok
O:Kumla, Närke
Z:Nils L
M:3/4
L:1/16
R:Polonäs
K:Dm
A2>^c2 d2>f2 e2>c2 | d2>f2 e2>g2 f2>g2 | a2ba g2f2 e2d2 | c2B2 AB^ce d4 |
A2>^c2 d2>f2 e2>c2 | d2>f2 e2>g2 f2>g2 | a2ab g2ga f2fg | e^cef d4 z4 ::
a4 f2a2 d'afa | a2g2 eceg eceg | a4 f2a2 d'afa | a2g2 eceg eceg |
afab gega fdfg | ecef d4 z4 :| 
(:musicend:)
(:music:)
